X:364
T: Gan shengling
N: C1393
O: China,Shaanxi, Shanbei
S: I, 75, 1)]
N: +++Ggf. schon vorhanden?? Doublette? Saengerin: Huang Bai
N: Wenig Verzierungen. Inhalt: Eine Frau sehnt sich nach ihrem Mann,
N: der sich irgendwo als Gastarbeiter verdingt.
N: Doppelt in C0024 und C0941.
R: Shange, Xintianyou. Nann siqing]
M: 2/4
L: 1/16
K: C
G4G2c2 | A3GE2D2 | D4c4 | d8- | d8 |
A4G4 | d3dc2A2 | G8- | G4
d2d2 | d4d2g2 | d4c2d2 | c4A2G2 | D4c4 |
d3gG4 | c4B2A2 | G8

@@@ Tune index: 6365
